X:272
T: Diu diu tong
N: C0447
O: China,Taiwan
S: IV, 628]
N: Glissandi.   Phrasierung ueberpruefen!!
R: Xiaodiao, Erge, Yilan diao]
M: 2/4
L: 1/16
K: Bb
c4d4 | c2d2c2b2 | c2ddc2b2 | c2z2
b2g2 | f2f2g2b2 | f8 |
g4c4 | g2b2b2g2 | c3bc3b | g2b2
b2g2 | f2fff2f2 | g2b2g2f2 | c6g2 | f8

@@@ Tune index: 6273
